public/assets/img/casestudies/borgatta/portfolio_logo.svg

<svg fill="none" height="61" viewBox="0 0 301 61" width="301" xmlns="http://www.w3.org/2000/svg" xmlns:xlink="http://www.w3.org/1999/xlink"><clipPath id="a"><path d="m.101562.70166h300.285v59.9306h-300.285z"/></clipPath><g clip-path="url(#a)" fill="#fff"><path d="m294.779 47.904c3.096 0 5.607-2.5103 5.607-5.6068s-2.511-5.6068-5.607-5.6068c-3.097 0-5.607 2.5103-5.607 5.6068s2.51 5.6068 5.607 5.6068z"/><path d="m286.631 23.512c-1.94-4.5963-8.783-7.4146-17.75-7.4146h-.051c-4.742.0451-9.462.6302-14.071 1.7439-1.084.2635-2.048.8833-2.738 1.76-.689.8767-1.065 1.9596-1.065 3.075v4.0335c5.36-2.2336 11.107-3.3925 16.914-3.411 6.665 0 10.178 1.5989 10.178 4.1571v.2857c-9.841 0-19.038.2046-24.487 2.247-3.65 1.3516-6.584 3.8799-6.584 8.4549-.003.7452.083 1.4881.256 2.2128-.934.1302-1.875.1957-2.818.1962-4.025 0-7.347-1.2152-7.347-5.4277v-11.3457h12.749v-7.5638h-12.749v-6.94136h-5.666c-.962-.00063-1.888.36189-2.593 1.01496-.705.6531-1.138 1.5485-1.211 2.5069l-.264 3.4109h-18.305v-6.93276h-5.632c-.971-.00261-1.907.36282-2.619 1.02266-.712.6599-1.147 1.5651-1.219 2.5333l-.264 3.3854h-6.08v4.9416c-2.883-3.3683-8.92-5.3595-16.459-5.3595h-.055c-4.653.0519-9.285.624-13.811 1.7055-1.152.28-2.177.9392-2.91 1.8717s-1.132 2.0842-1.132 3.2703v3.7649c5.355-2.2314 11.096-3.3903 16.898-3.411 6.669 0 10.178 1.5989 10.178 4.1571v.2857c-9.841 0-19.038.2046-24.492 2.247-3.091 1.1384-5.679 3.1338-6.396 6.5064v-18.901h-6.6c-.606.0036-1.192.2225-1.652.6177-.46.3951-.764.9408-.859 1.5397l-.188 1.2791c-4.008-3.6668-9.871-4.8563-14.416-4.8563-4.788 0-11.086 1.3174-15.179 5.3125v-5.368c-1.838-.3706-3.707-.5606-5.582-.567-5.065 0-11.0045 1.4965-14.3645 6.3017l-.5159-4.7498h-4.4344c-1.1527 0-2.2582.4577-3.0737 1.2723-.8155.8147-1.2742 1.9198-1.2754 3.0725v5.8668c-3.1168-8.5274-13.6229-10.4759-21.2808-10.4759-8.2206 0-19.7117 2.2342-21.8436 12.4457-2.4346-10.6592-14.109-10.3608-14.109-10.3608h-19.90356v-18.223028l-9.657578.03411v46.295318l31.944638-.0682c1.8856.0556 3.7599-.3085 5.4875-1.066 1.4779-.6138 2.7919-1.5642 3.8375-2.7756 1.0205-1.2641 1.7642-2.7282 2.1831-4.2978.159-.5798.2871-1.1676.3837-1.761 2.5029 9.6147 13.6443 11.7508 21.6816 11.7508 7.6749 0 18.1639-1.9442 21.2808-10.4802v10.2329h9.2994v-11.5973c0-8.5274 3.3087-13.7419 13.7462-13.7419 1.47.027 2.935.1768 4.379.4477-1.475 2.2043-2.379 4.9971-2.379 8.4933 0 12.5524 11.653 15.9889 19.379 15.9889 4.546 0 10.408-1.1853 14.416-4.8564v.3369c0 6.6386-5.543 9.12-13.797 9.12-4.658-.0352-9.271-.9149-13.615-2.5966v7.9561c4.52 1.4966 8.677 2.5284 13.461 2.5284 16.403 0 23.251-7.5681 23.251-16.0656v-4.1785c1.215 5.7262 7.892 7.6747 14.736 7.6747 7.47 0 13.874-2.3237 16.147-5.2444l.507 5.577h8.784v-19.1398c0-2.5582-.137-4.0207-.516-5.1932h4.579v11.2988c0 10.3438 7.675 13.1791 15.968 13.1791 2.667-.0648 5.313-.4952 7.863-1.2791v-7.5809c-2.168.7796-4.455 1.1721-6.759 1.1598-4.025 0-7.346-1.2152-7.346-5.4277v-11.3457h18.334v11.2945c0 10.3438 7.675 13.1791 15.964 13.1791 2.667-.0639 5.313-.4943 7.863-1.2791v-1.5264c2.826 1.7055 6.753 2.3493 10.74 2.3493 7.462 0 13.87-2.3237 16.143-5.2444l.52 5.5727h8.784v-19.1568c-.005-2.9846-.188-4.4684-.721-5.756zm-252.4188 12.207c-.2009.5797-.5706 1.0861-1.0617 1.4539-.4714.3133-1.0169.4971-1.5819.533-.638.0543-1.2784.0756-1.9187.0639l-19.90781.0682v-9.8065l19.92491-.0426c.6403-.0125 1.2809.0103 1.9187.0682.5642.0364 1.1092.2185 1.5819.5287.4835.3697.8469.874 1.0446 1.4497.3157.9122.4603 1.8749.4264 2.8396.0334.9661-.1111 1.9301-.4264 2.8439zm31.3904 5.7389c-6.1783 0-12.8939-2.1702-12.8939-8.6297s6.7156-8.6255 12.8939-8.6255c6.1782 0 12.8895 2.166 12.8895 8.6255s-6.6985 8.6297-12.8725 8.6297zm67.8934-.6779c-5.867 0-12.246-2.1745-12.246-8.6297 0-6.4553 6.396-8.6298 12.246-8.6298s12.245 2.7629 12.245 8.6468-6.383 8.6127-12.245 8.6127zm36.801.2302c-1.889 0-5.607-.4263-5.607-2.9163.025-.4916.175-.9685.437-1.3851s.627-.7589 1.059-.9941c3.36-2.0423 14.003-2.0423 17.751-2.0423h1.987c0 3.8117-6.226 7.3549-15.627 7.3549zm92.12 0c-1.889 0-5.607-.4263-5.607-2.9163.024-.4923.175-.97.438-1.3868s.629-.7587 1.063-.9924c3.355-2.0423 13.998-2.0423 17.746-2.0423h1.987c0 3.8117-6.225 7.3549-15.627 7.3549z"/></g></svg>

<svg width="301" height="61" viewBox="0 0 301 61" fill="none" xmlns="http://www.w3.org/2000/svg">
<g clip-path="url(#clip0_2495_184075)">
<path d="M294.779 47.904C297.875 47.904 300.386 45.3937 300.386 42.2972C300.386 39.2007 297.875 36.6904 294.779 36.6904C291.682 36.6904 289.172 39.2007 289.172 42.2972C289.172 45.3937 291.682 47.904 294.779 47.904Z" fill="white"/>
<path d="M286.631 23.512C284.691 18.9157 277.848 16.0974 268.881 16.0974H268.83C264.088 16.1425 259.368 16.7276 254.759 17.8413C253.675 18.1048 252.711 18.7246 252.021 19.6013C251.332 20.478 250.956 21.5609 250.956 22.6763V26.7098C256.316 24.4762 262.063 23.3173 267.87 23.2988C274.535 23.2988 278.048 24.8977 278.048 27.4559V27.7416C268.207 27.7416 259.01 27.9462 253.561 29.9886C249.911 31.3402 246.977 33.8685 246.977 38.4435C246.974 39.1887 247.06 39.9316 247.233 40.6563C246.299 40.7865 245.358 40.852 244.415 40.8525C240.39 40.8525 237.068 39.6373 237.068 35.4248V24.0791H249.817V16.5153H237.068V9.57394H231.402C230.44 9.57331 229.514 9.93583 228.809 10.5889C228.104 11.242 227.671 12.1374 227.598 13.0958L227.334 16.5067H209.029V9.57394H203.397C202.426 9.57133 201.49 9.93676 200.778 10.5966C200.066 11.2565 199.631 12.1617 199.559 13.1299L199.295 16.5153H193.215V21.4569C190.332 18.0886 184.295 16.0974 176.756 16.0974H176.701C172.048 16.1493 167.416 16.7214 162.89 17.8029C161.738 18.0829 160.713 18.7421 159.98 19.6746C159.247 20.6071 158.848 21.7588 158.848 22.9449V26.7098C164.203 24.4784 169.944 23.3195 175.746 23.2988C182.415 23.2988 185.924 24.8977 185.924 27.4559V27.7416C176.083 27.7416 166.886 27.9462 161.432 29.9886C158.341 31.127 155.753 33.1224 155.036 36.495V17.594H148.436C147.83 17.5976 147.244 17.8165 146.784 18.2117C146.324 18.6068 146.02 19.1525 145.925 19.7514L145.737 21.0305C141.729 17.3637 135.866 16.1742 131.321 16.1742C126.533 16.1742 120.235 17.4916 116.142 21.4867V16.1187C114.304 15.7481 112.435 15.5581 110.56 15.5517C105.495 15.5517 99.5555 17.0482 96.1955 21.8534L95.6796 17.1036H91.2452C90.0925 17.1036 88.987 17.5613 88.1715 18.3759C87.356 19.1906 86.8973 20.2957 86.8961 21.4484V27.3152C83.7793 18.7878 73.2732 16.8393 65.6153 16.8393C57.3947 16.8393 45.9036 19.0735 43.7717 29.285C41.3371 18.6258 29.6627 18.9242 29.6627 18.9242H9.75914V0.701172L0.101562 0.735282V47.0306L32.0462 46.9624C33.9318 47.018 35.8061 46.6539 37.5337 45.8964C39.0116 45.2826 40.3256 44.3322 41.3712 43.1208C42.3917 41.8567 43.1354 40.3926 43.5543 38.823C43.7133 38.2432 43.8414 37.6554 43.938 37.062C46.4409 46.6767 57.5823 48.8128 65.6196 48.8128C73.2945 48.8128 83.7835 46.8686 86.9004 38.3326V48.5655H96.1998V36.9682C96.1998 28.4408 99.5085 23.2263 109.946 23.2263C111.416 23.2533 112.881 23.4031 114.325 23.674C112.85 25.8783 111.946 28.6711 111.946 32.1673C111.946 44.7197 123.599 48.1562 131.325 48.1562C135.871 48.1562 141.733 46.9709 145.741 43.2998V43.6367C145.741 50.2753 140.198 52.7567 131.944 52.7567C127.286 52.7215 122.673 51.8418 118.329 50.1601V58.1162C122.849 59.6128 127.006 60.6446 131.79 60.6446C148.193 60.6446 155.041 53.0765 155.041 44.579V40.4005C156.256 46.1267 162.933 48.0752 169.777 48.0752C177.247 48.0752 183.651 45.7515 185.924 42.8308L186.431 48.4078H195.215V29.268C195.215 26.7098 195.078 25.2473 194.699 24.0748H199.278V35.3736C199.278 45.7174 206.953 48.5527 215.246 48.5527C217.913 48.4879 220.559 48.0575 223.109 47.2736V39.6927C220.941 40.4723 218.654 40.8648 216.35 40.8525C212.325 40.8525 209.004 39.6373 209.004 35.4248V24.0791H227.338V35.3736C227.338 45.7174 235.013 48.5527 243.302 48.5527C245.969 48.4888 248.615 48.0584 251.165 47.2736V45.7472C253.991 47.4527 257.918 48.0965 261.905 48.0965C269.367 48.0965 275.775 45.7728 278.048 42.8521L278.568 48.4248H287.352V29.268C287.347 26.2834 287.164 24.7996 286.631 23.512ZM34.2122 35.719C34.0113 36.2987 33.6416 36.8051 33.1505 37.1729C32.6791 37.4862 32.1336 37.67 31.5686 37.7059C30.9306 37.7602 30.2902 37.7815 29.6499 37.7698L9.74209 37.838V28.0315L29.667 27.9889C30.3073 27.9764 30.9479 27.9992 31.5857 28.0571C32.1499 28.0935 32.6949 28.2756 33.1676 28.5858C33.6511 28.9555 34.0145 29.4598 34.2122 30.0355C34.5279 30.9477 34.6725 31.9104 34.6386 32.8751C34.672 33.8412 34.5275 34.8052 34.2122 35.719ZM65.6026 41.4579C59.4243 41.4579 52.7087 39.2877 52.7087 32.8282C52.7087 26.3687 59.4243 24.2027 65.6026 24.2027C71.7808 24.2027 78.4921 26.3687 78.4921 32.8282C78.4921 39.2877 71.7936 41.4579 65.6196 41.4579H65.6026ZM133.496 40.78C127.629 40.78 121.25 38.6055 121.25 32.1503C121.25 25.695 127.646 23.5205 133.496 23.5205C139.346 23.5205 145.741 26.2834 145.741 32.1673C145.741 38.0512 139.358 40.78 133.496 40.78ZM170.297 41.0102C168.408 41.0102 164.69 40.5839 164.69 38.0939C164.715 37.6023 164.865 37.1254 165.127 36.7088C165.389 36.2922 165.754 35.9499 166.186 35.7147C169.546 33.6724 180.189 33.6724 183.937 33.6724H185.924C185.924 37.4841 179.698 41.0273 170.297 41.0273V41.0102ZM262.417 41.0102C260.528 41.0102 256.81 40.5839 256.81 38.0939C256.834 37.6016 256.985 37.1239 257.248 36.7071C257.511 36.2903 257.877 35.9484 258.311 35.7147C261.666 33.6724 272.309 33.6724 276.057 33.6724H278.044C278.044 37.4841 271.819 41.0273 262.417 41.0273V41.0102Z" fill="white"/>
</g>
<defs>
<clipPath id="clip0_2495_184075">
<rect width="300.285" height="59.9306" fill="white" transform="translate(0.101562 0.70166)"/>
</clipPath>
</defs>
</svg>
